X:1
T:Quem Pastores, 88.87
T:Quem Pastores, 88.87
T:Melody from Hohenfurth Manuscript, 1410
T:Public Domain Courtesy of the Cyber Hymnal™
C:Melody from Hohenfurth Manuscript, 1410
Z:Public Domain
Z:Courtesy of the Cyber Hymnal™
%%score ( 1 2 ) ( 3 4 )
L:1/8
Q:1/4=135
M:3/4
K:F
V:1 treble 
V:2 treble 
V:3 bass 
V:4 bass 
V:1
 [CF]4 [FA]2 | [Gc]4 [FA]2 | (B2 c2) [Fd]2 | [Fc]4 [EG]2 | (A2 B2) [Fc]2 | (B2 A2) [EG]2 | %6
 [DF]4 [=B,D]2 | [CE]4 C2 | [CA]4 [FB]2 | [Ec]4 [Fd]2 | [Fc]4 [DG]2 | [EA]4 [DF]2 | [DB]4 [GB]2 | %13
 (A2 G2) [DF]2 | (F2 D2) [CE]2 | [CF]6 |] %16
V:2
 x6 | x6 | F4 x2 | x6 | F4 x2 | D4 x2 | x6 | x4 C2 | x6 | x6 | x6 | x6 | x6 | E4 x2 | D4 x2 | x6 |] %16
V:3
 [F,A,]4 [F,C]2 | [E,C]4 [F,C]2 | [D,B,]4 [B,,B,]2 | (G,2 A,2) [C,B,]2 | [F,A,]4 A,2 | %5
 [G,B,]4 [C,C]2 | [D,A,]4 G,2 | [C,G,]4 [C,E,]2 | F,4 [D,F,]2 | [C,G,]4 [B,,B,]2 | %10
 [A,,C]4 [B,,B,]2 | [C,A,]4 [D,A,]2 | [G,,G,B,]4 [G,,G,D]2 | [C,C]4 [D,A,]2 | [B,,B,]4 [C,G,]2 | %15
 [F,A,]6 |] %16
V:4
 x6 | x6 | x6 | C,4 x2 | x4 A,2 | x6 | x4 G,2 | x6 | F,4 x2 | x6 | x6 | x6 | x6 | x6 | x6 | x6 |] %16

